X: 59
T: Give The Fiddler A Dram
B: canberra pickers and fiddlers
B: old time tunes update
B: tunes
M:4/4
L:1/8
R: reel
Q: 1/4=100
K:G
V:1 
GE|: "G"D2G2 GABG | "F"A2=F2F2 FE | "D"D2d2 dedc|[1 "G"B2G2G2 GE:|[2  "G"B2G2G2 Bc||
|:"G"d2g2 gagf | "C"e2c2c2cB | "A"A2a2 abag | "D"f2d2d2Bc | "G"d2g2 gagf |
"C"edcB c2 cB | "D"AGFE DFAc |[1 "G"B2G2G2 Bc:|[2 "G"BAGF G2 z2||
% abcbook-tune_id 67a7d9ecbeb6af485643bc69
% abcbook-tune_composer_id 
% abcbook-link-0 https://www.youtube.com/watch?v=SRd2qpUIi6A
% abcbook-link-title-0 Give The Fiddler A Dram
% abcbook-boost 0
% abcbook-difficulty 0
% abcbook-tags old time tunes
% abcbook-tablature 
% abcbook-transpose 2
% abcbook-tuning AEAE
% abcbook-lastupdated 1739164195205
% abcbook-src-url 
% abcbook-soundfonts 
% abcbook-repeats 1
%%MIDI transpose 2


